X: 98
T: Huil daguer haibuwan
%%abc-version 2.0
%%abcx-abcm2ps-target-version 5.9.1 (29 Sep 2008)
%%abc-creator hum2abc beta
%%abcx-conversion-date 2013/10/02 07:52:29
%%abc-edited-by Helmut Schaffrath
%%humdrum-veritas 2179379350
%%humdrum-veritas-data 3247918801
%%continueall 1
%%barnumbers 0
L: 1/8
M: 2/4
K: F
d A c d [I:setbarnb 1]| 
G F/ G/ D C | 
d A c d/ c/ | 
G4 | 
d A c3/ d/ | 
G F/ D/C2 | 
G c F E/ D/ | 
C4 |]  



